svg/100/outlined/family_history.svg

<svg xmlns="http://www.w3.org/2000/svg" width="48" height="48" viewBox="0 -960 960 960"><path d="M479.986-121Q430-121 395.5-155.51 361-190.02 361-240q0-47 31-80.5t77-38.5v-110H255v-136h-98v-218h218v218h-98v114h406v-114q-46-5-77-38.294T575-724q0-49.98 34.514-84.49t84.5-34.51Q744-843 778.5-808.49 813-773.98 813-724q0 47-31 80.5T705-605v136H491v110q46 5 77 38.294T599-240q0 49.98-34.514 84.49t-84.5 34.51Zm213.883-506Q734-627 762.5-655.369q28.5-28.368 28.5-68.5Q791-764 762.631-792.5q-28.368-28.5-68.5-28.5Q654-821 625.5-792.631q-28.5 28.368-28.5 68.5Q597-684 625.369-655.5q28.368 28.5 68.5 28.5ZM179-627h174v-174H179v174Zm300.869 484Q520-143 548.5-171.369q28.5-28.368 28.5-68.5Q577-280 548.631-308.5q-28.368-28.5-68.5-28.5Q440-337 411.5-308.631q-28.5 28.368-28.5 68.5Q383-200 411.369-171.5q28.368 28.5 68.5 28.5ZM266-714Zm428-10ZM480-240Z"/></svg>

<svg xmlns="http://www.w3.org/2000/svg" width="48" height="48" viewBox="0 -960 960 960"><path d="M479.99-121q-49.99 0-84.49-34.51Q361-190.02 361-240q0-47 31-80.5t77-38.5v-110H255v-136h-98v-218h218v218h-98v114h406v-114q-46-5-77-38.29-31-33.3-31-80.71 0-49.98 34.51-84.49Q644.03-843 694.01-843q49.99 0 84.49 34.51Q813-773.98 813-724q0 47-31 80.5T705-605v136H491v110q46 5 77 38.29 31 33.3 31 80.71 0 49.98-34.51 84.49Q529.97-121 479.99-121Zm213.88-506q40.13 0 68.63-28.37 28.5-28.37 28.5-68.5 0-40.13-28.37-68.63-28.37-28.5-68.5-28.5-40.13 0-68.63 28.37-28.5 28.37-28.5 68.5 0 40.13 28.37 68.63 28.37 28.5 68.5 28.5ZM179-627h174v-174H179v174Zm300.87 484q40.13 0 68.63-28.37 28.5-28.37 28.5-68.5 0-40.13-28.37-68.63-28.37-28.5-68.5-28.5-40.13 0-68.63 28.37-28.5 28.37-28.5 68.5 0 40.13 28.37 68.63 28.37 28.5 68.5 28.5ZM266-714Zm428-10ZM480-240Z"/></svg>
